_cdn/img/vt-instagram.svg

<svg width="21" height="24" viewBox="0 0 21 24" fill="none" xmlns="http://www.w3.org/2000/svg">
<g clip-path="url(#clip0)">
<path d="M10.5048 6.60937C7.52354 6.60937 5.11885 9.01405 5.11885 11.9953C5.11885 14.9766 7.52354 17.3812 10.5048 17.3812C13.486 17.3812 15.8907 14.9766 15.8907 11.9953C15.8907 9.01405 13.486 6.60937 10.5048 6.60937ZM10.5048 15.4969C8.57822 15.4969 7.00322 13.9266 7.00322 11.9953C7.00322 10.0641 8.57354 8.49374 10.5048 8.49374C12.436 8.49374 14.0063 10.0641 14.0063 11.9953C14.0063 13.9266 12.4313 15.4969 10.5048 15.4969V15.4969ZM17.3673 6.38905C17.3673 7.08749 16.8048 7.6453 16.111 7.6453C15.4126 7.6453 14.8548 7.0828 14.8548 6.38905C14.8548 5.6953 15.4173 5.1328 16.111 5.1328C16.8048 5.1328 17.3673 5.6953 17.3673 6.38905ZM20.9345 7.66405C20.8548 5.98124 20.4704 4.49062 19.2376 3.26249C18.0095 2.03437 16.5188 1.64999 14.836 1.56562C13.1017 1.46718 7.90322 1.46718 6.16885 1.56562C4.49072 1.64531 3.0001 2.02968 1.76729 3.25781C0.534473 4.48593 0.154785 5.97655 0.0704102 7.65937C-0.0280273 9.39374 -0.0280273 14.5922 0.0704102 16.3265C0.150098 18.0094 0.534473 19.5 1.76729 20.7281C3.0001 21.9562 4.48604 22.3406 6.16885 22.425C7.90322 22.5234 13.1017 22.5234 14.836 22.425C16.5188 22.3453 18.0095 21.9609 19.2376 20.7281C20.4657 19.5 20.8501 18.0094 20.9345 16.3265C21.0329 14.5922 21.0329 9.39843 20.9345 7.66405V7.66405ZM18.6938 18.1875C18.3282 19.1062 17.6204 19.814 16.697 20.1844C15.3142 20.7328 12.0329 20.6062 10.5048 20.6062C8.97666 20.6062 5.69072 20.7281 4.3126 20.1844C3.39385 19.8187 2.68604 19.1109 2.31572 18.1875C1.76729 16.8047 1.89385 13.5234 1.89385 11.9953C1.89385 10.4672 1.77197 7.18124 2.31572 5.80312C2.68135 4.88437 3.38916 4.17656 4.3126 3.80624C5.69541 3.25781 8.97666 3.38437 10.5048 3.38437C12.0329 3.38437 15.3188 3.26249 16.697 3.80624C17.6157 4.17187 18.3235 4.87968 18.6938 5.80312C19.2423 7.18593 19.1157 10.4672 19.1157 11.9953C19.1157 13.5234 19.2423 16.8094 18.6938 18.1875Z" fill="#00C5FF"/>
</g>
<defs>
<clipPath id="clip0">
<rect width="21" height="24" fill="white"/>
</clipPath>
</defs>
</svg>

<svg width="21" height="24" fill="none" xmlns="http://www.w3.org/2000/svg"><g clip-path="url(#clip0)"><path d="M10.505 6.61a5.377 5.377 0 00-5.386 5.385 5.377 5.377 0 005.386 5.386 5.377 5.377 0 005.386-5.386 5.377 5.377 0 00-5.386-5.386zm0 8.887a3.508 3.508 0 01-3.502-3.502 3.505 3.505 0 013.502-3.501 3.505 3.505 0 013.501 3.501 3.508 3.508 0 01-3.501 3.502zm6.862-9.108c0 .698-.562 1.256-1.256 1.256a1.256 1.256 0 111.256-1.256zm3.567 1.275c-.08-1.683-.464-3.173-1.696-4.402-1.229-1.228-2.72-1.612-4.402-1.696-1.734-.099-6.933-.099-8.667 0C4.49 1.646 3 2.03 1.767 3.258S.155 5.977.07 7.659c-.098 1.735-.098 6.933 0 8.668.08 1.682.464 3.173 1.697 4.401C3 21.956 4.486 22.341 6.17 22.425c1.734.098 6.933.098 8.667 0 1.683-.08 3.173-.464 4.402-1.697 1.228-1.228 1.612-2.719 1.697-4.402.098-1.734.098-6.928 0-8.662zm-2.24 10.524a3.545 3.545 0 01-1.997 1.996c-1.383.549-4.664.422-6.192.422-1.528 0-4.814.122-6.192-.422a3.545 3.545 0 01-1.997-1.997c-.549-1.382-.422-4.664-.422-6.192 0-1.528-.122-4.814.422-6.192a3.545 3.545 0 011.997-1.997c1.382-.548 4.664-.422 6.192-.422 1.528 0 4.814-.122 6.192.422a3.545 3.545 0 011.997 1.997c.548 1.383.422 4.664.422 6.192 0 1.528.126 4.814-.422 6.193z" fill="#00C5FF"/></g><defs><clipPath id="clip0"><path fill="#fff" d="M0 0h21v24H0z"/></clipPath></defs></svg>
